packages/kaspersky-hexa-ui-icons/src/iconsSVGs/16/ShieldDangerSolid.svg

<svg width="16" height="16" viewBox="0 0 16 16" fill="none" xmlns="http://www.w3.org/2000/svg">
<path fill-rule="evenodd" clip-rule="evenodd" d="M7.09256 1.3516C7.67024 1.05174 8.3577 1.05174 8.93538 1.3516L13.1554 3.54211C13.4867 3.7141 13.6947 4.05634 13.6947 4.42966V7.40979C13.6947 8.3898 13.5995 9.50985 13.1059 10.5496C12.2885 12.2717 11.1048 13.3685 10.1264 14.0329C9.63766 14.3649 9.1973 14.591 8.87315 14.7361C8.71079 14.8088 8.57668 14.8615 8.47907 14.8974C8.26527 14.9758 8.17571 14.9999 8.01397 14.9999C7.86531 14.9999 7.72017 14.9591 7.57899 14.9126C7.47834 14.8795 7.34056 14.8302 7.17411 14.7612C6.84178 14.6232 6.39145 14.4047 5.89287 14.0747C4.89249 13.4125 3.69562 12.299 2.88237 10.5007C2.42375 9.48656 2.33325 8.4039 2.33325 7.4516V4.42966C2.33325 4.05634 2.5412 3.7141 2.87255 3.54211L7.09256 1.3516ZM9.79287 6.20706C9.53903 5.95322 9.12747 5.95322 8.87363 6.20706L7.99992 7.08077L7.12622 6.20706C6.87238 5.95322 6.46082 5.95322 6.20698 6.20706C5.95314 6.4609 5.95314 6.87246 6.20698 7.1263L7.08069 8.00001L6.20697 8.87373C5.95313 9.12757 5.95313 9.53912 6.20697 9.79296C6.46081 10.0468 6.87236 10.0468 7.12621 9.79296L7.99992 8.91924L8.87364 9.79296C9.12748 10.0468 9.53904 10.0468 9.79288 9.79296C10.0467 9.53912 10.0467 9.12757 9.79288 8.87373L8.91916 8.00001L9.79287 7.1263C10.0467 6.87246 10.0467 6.4609 9.79287 6.20706Z" fill="black"/>
</svg>

<svg xmlns="http://www.w3.org/2000/svg" width="16" height="16" fill="none" viewBox="0 0 16 16"><path fill="#000" fill-rule="evenodd" d="M7.0926 1.3516a2 2 0 0 1 1.8428 0l4.22 2.1905a1 1 0 0 1 .5393.8876v2.98c0 .9801-.0952 2.1002-.5888 3.1399-.8174 1.7221-2.0011 2.8189-2.9795 3.4833-.4887.332-.9291.5581-1.2532.7032a6.2 6.2 0 0 1-.3941.1613c-.2138.0784-.3034.1025-.4651.1025-.1487 0-.2938-.0408-.435-.0873a5.8 5.8 0 0 1-.4049-.1514c-.3323-.138-.7827-.3565-1.2812-.6865-1.0004-.6622-2.1973-1.7757-3.0105-3.574-.4586-1.0141-.5491-2.0968-.5491-3.0491v-3.022a1 1 0 0 1 .5393-.8875zm2.7003 4.8555a.65.65 0 0 0-.9193 0L8 7.0808l-.8737-.8737a.65.65 0 0 0-.9192.9192L7.0807 8l-.8737.8737a.65.65 0 1 0 .9192.9193L8 8.9192l.8737.8738a.65.65 0 0 0 .9193-.9193L8.9192 8l.8737-.8737a.65.65 0 0 0 0-.9192"/></svg>
